img/logo/nerds-logo.svg

<svg width="168" height="74" viewBox="0 0 168 74" fill="none" xmlns="http://www.w3.org/2000/svg">
<g filter="url(#filter0_d_3_62)">
<path fill-rule="evenodd" clip-rule="evenodd" d="M52.031 24.783C55.682 28.757 63.647 25.158 61.062 19.861C59.336 16.305 56.75 17.13 54.904 18.041C51.208 19.82 50.509 23.088 52.031 24.783ZM46.105 22.002C48.481 26.868 41.168 30.173 37.813 26.523C36.415 24.968 37.058 21.963 40.449 20.33C42.146 19.494 44.522 18.734 46.105 22.002ZM161.936 50.374C160.715 50.5332 159.442 50.6425 158.221 50.7474L158.179 50.751V50.807C155.764 68.171 131.991 71.038 131.4 57.406C131.131 51.239 142.993 49.456 154.798 48.318C155.007 42.9112 151.233 44.1234 146.648 45.5959C141.829 47.1437 136.115 48.979 133.19 43.717C128.171 34.692 147.822 25.779 149.918 27.615C156.271 33.1766 153.4 34.2063 148.727 35.8824L148.539 35.95C139.049 39.36 142.748 40.057 144.028 39.676C151.597 37.423 158.394 38.636 158.34 47.993C158.955 47.9419 159.557 47.9025 160.154 47.8634L160.154 47.8634C160.807 47.8207 161.452 47.7784 162.097 47.722C164.403 47.507 164.564 50.157 161.936 50.374ZM154.422 51.13C145.298 52.158 137.409 53.566 138.269 56.485C139.985 62.058 151.846 63.303 154.422 51.13ZM121.79 34.23C120.975 39.88 120.996 45.881 121.678 45.918C122.012 45.937 123.982 45.572 124.617 44.411C125.226 43.2934 125.794 41.7543 126.388 40.141L126.388 40.1409L126.388 40.1409L126.388 40.1408L126.388 40.1407L126.388 40.1406L126.388 40.1405C127.586 36.8907 128.895 33.3397 130.883 32.324C133.725 30.873 122.795 27.279 121.79 34.23ZM32.883 62.666C24.964 68.004 18.664 66.825 20.671 51.818C22.121 40.914 19.723 40.297 17.549 42.376C14.704 45.073 12.921 52.099 12.865 58.788C13.1232 60.3951 13.4583 61.9889 13.869 63.564C14.203 65.194 8.962 66.879 5.895 64.575C4.837 63.79 4 55.865 4 45.131C4 36.307 5.171 30.236 6.23 29.956C14.259 27.765 15.542 31.304 13.813 37.937C13.1254 40.5343 12.6587 43.1851 12.418 45.861C14.091 41.197 16.489 37.376 19.221 35.688C26.637 31.024 32.826 33.215 31.655 42.489C29.648 59.069 29.481 61.316 31.265 60.024C33.496 58.45 34.945 61.262 32.883 62.666ZM45.766 65.142C51.176 65.761 56.807 64.074 58.982 60.59C60.821 57.667 59.316 56.655 57.197 59.015C52.737 64.131 48.109 61.826 46.158 56.655L46.66 56.487C56.082 52.721 61.992 42.493 58.257 36.704C53.126 28.723 37.069 35.86 35.061 47.045C33.221 57.386 38.016 64.299 45.766 65.142ZM45.377 53.172C51.232 49.013 53.183 39.852 51.566 37.267C49.838 34.57 46.492 38.784 45.321 49.013C45.21 50.474 45.21 51.878 45.377 53.172ZM81.125 51.051C83.188 50.376 85.494 48.499 87.091 45.992C87.538 45.289 87.914 44.657 88.43 43.012C88.3675 43.2111 88.3915 43.1204 88.4509 42.8953C88.5588 42.4863 88.7839 41.6335 88.82 41.271C88.82 41.215 88.876 40.932 88.932 40.822C90.157 33.965 85.921 30.086 80.065 33.009C76.776 34.638 72.706 40.822 70.253 47.51C70.866 43.912 71.925 40.484 73.096 37.111C75.103 31.154 71.368 28.119 64.956 29.862C63.896 30.143 61.945 37.955 61.945 46.779C61.945 57.513 62.503 63.695 63.562 64.483C66.628 66.843 72.092 65.101 71.535 63.527C71.3189 62.9291 71.1554 62.3284 70.9926 61.7303L70.977 61.673C70.977 61.504 70.977 61.335 70.922 61.167C69.861 54.196 73.933 44.532 77.278 41.946C78.17 41.215 79.396 41.721 79.564 43.632C76.832 44.981 75.94 47.342 75.94 48.353C75.94 51.107 78.727 51.781 81.125 51.051Z" fill="black"/>
<path fill-rule="evenodd" clip-rule="evenodd" d="M117.207 27.161C116.726 29.6539 116.354 32.1666 116.092 34.692C115.033 44.752 115.48 53.688 116.705 57.678C117.431 59.815 120.162 62.624 122.783 59.701C125.626 56.498 128.75 58.352 124.957 62.117C122.617 64.422 118.268 65.995 113.918 65.545C110.795 65.152 108.9 63.13 107.784 60.04C107.34 60.938 106.837 61.725 106.224 62.342C104.105 64.535 101.539 65.772 98.25 65.434C91.613 64.704 87.712 57.511 89.551 47.281C91.503 36.49 100.87 32.556 106.279 35.424C106.391 34.075 106.502 32.725 106.614 31.32C106.642 31.1795 106.655 31.039 106.669 30.8985C106.683 30.758 106.697 30.6175 106.724 30.477C105.079 30.8387 103.424 31.1575 101.762 31.433C77.787 35.423 86.04 15.864 91.894 10.75C98.53 5.017 99.254 8.895 97.191 10.188C93.511 12.548 91.894 26.093 102.432 26.093C104.161 26.093 105.778 25.981 107.394 25.812C110.685 7.49 120.665 -1.391 128.75 1.532C137.726 4.792 136.779 19.067 117.207 27.161ZM106.279 51.554C106.055 48.012 106.055 44.022 106.112 39.918C106.112 39.6576 106.127 39.3974 106.141 39.1449C106.155 38.9068 106.168 38.6754 106.168 38.457C102.822 36.939 99.533 42.11 98.695 49.249C97.749 57.622 101.483 62.062 103.603 60.04C105.22 58.409 106.056 53.237 106.279 51.554ZM130.365 8.389C128.581 5.747 122.058 8.951 118.267 22.721C127.802 18.167 131.593 10.299 130.365 8.389Z" fill="black"/>
</g>
<defs>
<filter id="filter0_d_3_62" x="0" y="0.984566" width="167.867" height="73.0156" filterUnits="userSpaceOnUse" color-interpolation-filters="sRGB">
<feFlood flood-opacity="0" result="BackgroundImageFix"/>
<feColorMatrix in="SourceAlpha" type="matrix" values="0 0 0 0 0 0 0 0 0 0 0 0 0 0 0 0 0 0 127 0" result="hardAlpha"/>
<feOffset dy="4"/>
<feGaussianBlur stdDeviation="2"/>
<feComposite in2="hardAlpha" operator="out"/>
<feColorMatrix type="matrix" values="0 0 0 0 0 0 0 0 0 0 0 0 0 0 0 0 0 0 0.25 0"/>
<feBlend mode="normal" in2="BackgroundImageFix" result="effect1_dropShadow_3_62"/>
<feBlend mode="normal" in="SourceGraphic" in2="effect1_dropShadow_3_62" result="shape"/>
</filter>
</defs>
</svg>

<svg xmlns="http://www.w3.org/2000/svg" width="168" height="74" fill="none"><g fill="#000" fill-rule="evenodd" clip-rule="evenodd" filter="url(#a)"><path d="M52.031 24.783c3.651 3.974 11.616.375 9.031-4.922-1.726-3.556-4.312-2.731-6.158-1.82-3.696 1.779-4.395 5.047-2.873 6.742Zm-5.926-2.781c2.376 4.866-4.937 8.171-8.292 4.521-1.398-1.555-.755-4.56 2.636-6.193 1.697-.836 4.073-1.596 5.656 1.672Zm115.831 28.372c-1.221.16-2.494.268-3.715.373l-.042.004v.056c-2.415 17.364-26.188 20.231-26.779 6.599-.269-6.167 11.593-7.95 23.398-9.088.209-5.407-3.565-4.195-8.15-2.722-4.819 1.548-10.533 3.383-13.458-1.879-5.019-9.025 14.632-17.938 16.728-16.102 6.353 5.562 3.482 6.591-1.191 8.267l-.188.068c-9.49 3.41-5.791 4.107-4.511 3.726 7.569-2.253 14.366-1.04 14.312 8.317.615-.051 1.217-.09 1.814-.13a88.814 88.814 0 0 0 1.943-.141c2.306-.215 2.467 2.435-.161 2.652Zm-7.514.756c-9.124 1.028-17.013 2.436-16.153 5.355 1.716 5.573 13.577 6.818 16.153-5.355Zm-32.632-16.9c-.815 5.65-.794 11.651-.112 11.688.334.019 2.304-.346 2.939-1.507.609-1.118 1.177-2.657 1.771-4.27 1.198-3.25 2.507-6.801 4.495-7.817 2.842-1.451-8.088-5.045-9.093 1.906ZM32.883 62.666c-7.919 5.338-14.219 4.159-12.212-10.848 1.45-10.904-.948-11.521-3.122-9.442-2.845 2.697-4.628 9.723-4.684 16.412.258 1.607.593 3.2 1.004 4.776.334 1.63-4.907 3.315-7.974 1.011C4.837 63.79 4 55.865 4 45.131c0-8.824 1.171-14.895 2.23-15.175 8.029-2.191 9.312 1.348 7.583 7.981a47.64 47.64 0 0 0-1.395 7.924c1.673-4.664 4.071-8.485 6.803-10.173 7.416-4.664 13.605-2.473 12.434 6.801-2.007 16.58-2.174 18.827-.39 17.535 2.231-1.574 3.68 1.238 1.618 2.642Zm12.883 2.476c5.41.619 11.041-1.068 13.216-4.552 1.839-2.923.334-3.935-1.785-1.575-4.46 5.116-9.088 2.811-11.039-2.36l.502-.168c9.422-3.766 15.332-13.994 11.597-19.783-5.131-7.981-21.188-.844-23.196 10.341-1.84 10.341 2.955 17.254 10.705 18.097Zm-.389-11.97c5.855-4.159 7.806-13.32 6.189-15.905-1.728-2.697-5.074 1.517-6.245 11.746-.111 1.461-.111 2.865.056 4.159Zm35.748-2.121c2.063-.675 4.369-2.552 5.966-5.059.447-.703.823-1.335 1.339-2.98-.063.2-.039.108.02-.117.109-.409.334-1.262.37-1.624 0-.056.056-.339.112-.449 1.225-6.857-3.011-10.736-8.867-7.813-3.289 1.629-7.359 7.813-9.812 14.501.613-3.598 1.672-7.026 2.843-10.399 2.007-5.957-1.728-8.992-8.14-7.249-1.06.281-3.011 8.093-3.011 16.917 0 10.734.558 16.916 1.617 17.704 3.066 2.36 8.53.618 7.973-.956-.216-.598-.38-1.199-.542-1.797l-.016-.057c0-.169 0-.338-.055-.506-1.061-6.971 3.011-16.635 6.356-19.221.892-.731 2.118-.225 2.286 1.686-2.732 1.349-3.624 3.71-3.624 4.721 0 2.754 2.787 3.428 5.185 2.698Z"/><path d="M117.207 27.161a87.304 87.304 0 0 0-1.115 7.531c-1.059 10.06-.612 18.996.613 22.986.726 2.137 3.457 4.946 6.078 2.023 2.843-3.203 5.967-1.349 2.174 2.416-2.34 2.305-6.689 3.878-11.039 3.428-3.123-.393-5.018-2.415-6.134-5.505-.444.898-.947 1.685-1.56 2.302-2.119 2.193-4.685 3.43-7.974 3.092-6.637-.73-10.538-7.923-8.699-18.153 1.952-10.791 11.319-14.725 16.728-11.857.112-1.349.223-2.699.335-4.104.028-.14.041-.281.055-.422.014-.14.028-.28.055-.421-1.645.362-3.3.68-4.962.956-23.975 3.99-15.722-15.569-9.868-20.683 6.636-5.733 7.36-1.855 5.297-.562-3.68 2.36-5.297 15.905 5.241 15.905 1.729 0 3.346-.112 4.962-.281 3.291-18.322 13.271-27.203 21.356-24.28 8.976 3.26 8.029 17.535-11.543 25.629Zm-10.928 24.393c-.224-3.542-.224-7.532-.167-11.636 0-.26.015-.52.029-.773.014-.238.027-.47.027-.688-3.346-1.518-6.635 3.653-7.473 10.792-.946 8.373 2.788 12.813 4.908 10.791 1.617-1.631 2.453-6.803 2.676-8.486Zm24.086-43.165c-1.784-2.642-8.307.562-12.098 14.332 9.535-4.554 13.326-12.422 12.098-14.332Z"/></g><defs><filter id="a" width="167.867" height="73.016" x="0" y=".985" color-interpolation-filters="sRGB" filterUnits="userSpaceOnUse"><feFlood flood-opacity="0" result="BackgroundImageFix"/><feColorMatrix in="SourceAlpha" result="hardAlpha" values="0 0 0 0 0 0 0 0 0 0 0 0 0 0 0 0 0 0 127 0"/><feOffset dy="4"/><feGaussianBlur stdDeviation="2"/><feComposite in2="hardAlpha" operator="out"/><feColorMatrix values="0 0 0 0 0 0 0 0 0 0 0 0 0 0 0 0 0 0 0.25 0"/><feBlend in2="BackgroundImageFix" result="effect1_dropShadow_3_62"/><feBlend in="SourceGraphic" in2="effect1_dropShadow_3_62" result="shape"/></filter></defs></svg>
